src/standard/diagrams/graph-line-up.svg

<svg xmlns="http://www.w3.org/2000/svg" viewBox="0 0 36 36">
  <path d="M17.38 8v10a.62.62 0 0 0 1.24 0V8a.62.62 0 0 0-1.24 0Zm-7 0v6a.62.62 0 0 0 1.24 0V8a.62.62 0 0 0-1.24 0Zm14 0v6a.62.62 0 0 0 1.24 0V8a.62.62 0 0 0-1.24 0Z"/>
  <path d="M5 21.62a.62.62 0 0 0 .62-.62V5.62h24.76V10a.62.62 0 0 0 1.24 0V5a.62.62 0 0 0-.62-.62H5a.62.62 0 0 0-.62.62v16a.62.62 0 0 0 .62.62Zm26-5.24a.62.62 0 0 0-.62.62v13.38H5.62V28a.62.62 0 0 0-1.24 0v3a.62.62 0 0 0 .62.62h26a.62.62 0 0 0 .62-.62V17a.62.62 0 0 0-.62-.62Z"/>
  <path d="M32.44 11.56a.61.61 0 0 0-.88 0L19 24.12l-6.56-6.56a.61.61 0 0 0-.88 0l-8 8a.62.62 0 0 0 .88.88L12 18.88l6.56 6.56a.61.61 0 0 0 .88 0l13-13a.61.61 0 0 0 0-.88Z"/>
</svg>

<svg id="bc6af7d6-2b3a-4977-a10e-c549dae2b3da" data-name="Icon" xmlns="http://www.w3.org/2000/svg" viewBox="0 0 36 36">
  <g>
    <path d="M17.38,8V18a.62.62,0,0,0,1.24,0V8A.62.62,0,0,0,17.38,8Z"/>
    <path d="M10.38,8v6a.62.62,0,0,0,1.24,0V8A.62.62,0,0,0,10.38,8Z"/>
    <path d="M24.38,8v6a.62.62,0,0,0,1.24,0V8A.62.62,0,0,0,24.38,8Z"/>
    <path d="M5,21.62A.62.62,0,0,0,5.62,21V5.62H30.38V10a.62.62,0,0,0,1.24,0V5A.62.62,0,0,0,31,4.38H5A.62.62,0,0,0,4.38,5V21A.62.62,0,0,0,5,21.62Z"/>
    <path d="M31,16.38a.62.62,0,0,0-.62.62V30.38H5.62V28a.62.62,0,0,0-1.24,0v3a.62.62,0,0,0,.62.62H31a.62.62,0,0,0,.62-.62V17A.62.62,0,0,0,31,16.38Z"/>
    <path d="M32.44,11.56a.61.61,0,0,0-.88,0L19,24.12l-6.56-6.56a.61.61,0,0,0-.88,0l-8,8a.62.62,0,0,0,.88.88L12,18.88l6.56,6.56a.61.61,0,0,0,.88,0l13-13A.61.61,0,0,0,32.44,11.56Z"/>
  </g>
</svg>
